X: 3254
T: Spader Syv
B:[[Notböcker/Melodier til gamle danske Almuedanse for Violin solo]]
O:Danmark
Z:Søren Bak Vestergaard
M: 2/4
L: 1/8
K: G
BdBG|BdBG|(.B2.d2)|G2 z2:| |:d2 dd|"^\^"g2 z2|\
d2 dd|"^\^"g2 z2|dc B2|cB A2|(.G2.B2)|1 d2 z2:|2 G2 z2|]
(:musicend:)
(:music:)
